Yaru++/actions/16/view-zoom-original.svg

<svg height="16" width="16" xmlns="http://www.w3.org/2000/svg">
  <g fill="#808080">
    <path d="m5.994 2c-1.258.015-2.179-.03-2.932.385a1.88 1.88 0 0 0 -.837.998c-.165.437-.225.96-.225 1.617v6c0 .658.06 1.179.225 1.617.164.439.461.79.837.998.753.416 1.674.37 2.932.385h4.012c1.258-.015 2.179.03 2.932-.385a1.88 1.88 0 0 0 .838-.998c.164-.438.224-.96.224-1.617v-6c0-.658-.06-1.179-.225-1.617a1.88 1.88 0 0 0 -.838-.998c-.752-.416-1.673-.37-2.931-.385h-4.008zm.006 1h4c1.259.015 2.087.06 2.453.262.184.1.29.212.387.472s.16.674.16 1.266v6c0 .592-.063 1.006-.16 1.266-.098.26-.202.371-.385.472-.366.202-1.197.247-2.455.262h-4c-1.259-.015-2.09-.06-2.455-.262-.184-.1-.287-.212-.385-.472-.097-.26-.16-.674-.16-1.266v-6c0-.592.063-1.006.16-1.266.098-.26.201-.371.385-.472.365-.202 1.195-.247 2.455-.262z"/>
    <path d="m6.117 6.247c.167-.07.34-.147.52-.234.184-.092.363-.19.536-.294a8.2 8.2 0 0 0 .494-.338c.161-.121.306-.248.433-.381h.9v6h-1v-4.652c-.448.347-1.012.566-1.494.762z"/>
  </g>
</svg>

<svg height="16" width="16" xmlns="http://www.w3.org/2000/svg">
    <g fill="gray">
        <path d="M5.994 2c-1.258.015-2.179-.03-2.932.385a1.88 1.88 0 0 0-.837.998C2.06 3.82 2 4.343 2 5v6c0 .658.06 1.179.225 1.617.164.439.461.79.837.998.753.416 1.674.37 2.932.385H10.006c1.258-.015 2.179.03 2.932-.385a1.88 1.88 0 0 0 .838-.998c.164-.438.224-.96.224-1.617V5c0-.658-.06-1.179-.225-1.617a1.88 1.88 0 0 0-.838-.998c-.752-.416-1.673-.37-2.931-.385H5.998zM6 3h4c1.259.015 2.087.06 2.453.262.184.1.29.212.387.472.097.26.16.674.16 1.266v6c0 .592-.063 1.006-.16 1.266-.098.26-.202.371-.385.472-.366.202-1.197.247-2.455.262H6c-1.259-.015-2.09-.06-2.455-.262-.184-.1-.287-.212-.385-.472C3.063 12.006 3 11.592 3 11V5c0-.592.063-1.006.16-1.266.098-.26.201-.371.385-.472C3.91 3.06 4.74 3.015 6 3z" style="line-height:normal;font-variant-ligatures:normal;font-variant-position:normal;font-variant-caps:normal;font-variant-numeric:normal;font-variant-alternates:normal;font-feature-settings:normal;text-indent:0;text-align:start;text-decoration-line:none;text-decoration-style:solid;text-decoration-color:#000;text-transform:none;text-orientation:mixed;shape-padding:0;isolation:auto;mix-blend-mode:normal;marker:none" color="#000" font-weight="400" font-family="sans-serif" white-space="normal" overflow="visible"/>
        <path d="M6.117 6.247c.167-.07.34-.147.52-.234.184-.092.363-.19.536-.294a8.2 8.2 0 0 0 .494-.338c.161-.121.306-.248.433-.381H9v6H8V6.348c-.448.347-1.012.566-1.494.762z" style="line-height:1000%;-inkscape-font-specification:Ubuntu;text-align:center" font-weight="700" font-family="Ubuntu" letter-spacing="0" word-spacing="0" text-anchor="middle"/>
    </g>
</svg>
